src/assets/icons/olympus-nav-header.svg

<svg width="152" height="98" viewBox="0 0 152 98" fill="none" xmlns="http://www.w3.org/2000/svg">
<path fill-rule="evenodd" clip-rule="evenodd" d="M70.5455 50V49.8864V47.4891V40.5306C63.4238 38.2889 58.2727 31.7761 58.2727 24.0909C58.2727 14.5514 66.2095 6.81818 76 6.81818C85.7905 6.81818 93.7273 14.5514 93.7273 24.0909C93.7273 31.7761 88.5762 38.2889 81.4545 40.5306V47.4891V49.8864V50H101V42.9546H91.348C97.1553 38.5547 100.886 31.7152 100.886 24.0341C100.886 10.7604 89.7444 0 76 0C62.2556 0 51.1136 10.7604 51.1136 24.0341C51.1136 31.7152 54.8447 38.5547 60.652 42.9546H51V50H70.5455Z"/>
<path d="M9.41156 84.016C10.9716 85.6 12.8556 86.392 15.0636 86.392C17.2716 86.392 19.1436 85.6 20.6796 84.016C22.2396 82.408 23.0196 80.476 23.0196 78.22C23.0196 75.964 22.2396 74.044 20.6796 72.46C19.1436 70.852 17.2716 70.048 15.0636 70.048C12.8556 70.048 10.9716 70.852 9.41156 72.46C7.87556 74.044 7.10756 75.964 7.10756 78.22C7.10756 80.476 7.87556 82.408 9.41156 84.016ZM24.3876 87.58C21.8196 90.148 18.7116 91.432 15.0636 91.432C11.4156 91.432 8.29556 90.148 5.70356 87.58C3.13556 84.988 1.85156 81.868 1.85156 78.22C1.85156 74.572 3.13556 71.464 5.70356 68.896C8.29556 66.304 11.4156 65.008 15.0636 65.008C18.7116 65.008 21.8196 66.304 24.3876 68.896C26.9796 71.464 28.2756 74.572 28.2756 78.22C28.2756 81.868 26.9796 84.988 24.3876 87.58Z"/>
<path d="M31.7588 91V64.72H36.6908V91H31.7588Z"/>
<path d="M48.5188 97.984H43.1548L46.6828 89.992L39.1228 73H44.5228L49.3468 84.664L54.1348 73H59.5708L48.5188 97.984Z"/>
<path d="M84.6381 91V81.496C84.6381 78.592 83.6061 77.14 81.5421 77.14C79.9821 77.14 78.8301 77.848 78.0861 79.264C78.1821 79.672 78.2301 80.128 78.2301 80.632V91H73.2981V81.496C73.2981 78.592 72.2661 77.14 70.2021 77.14C69.5061 77.14 68.8581 77.32 68.2581 77.68C67.6581 78.016 67.2021 78.472 66.8901 79.048V91H61.9581V73H66.8901V74.404C67.9461 73.204 69.4101 72.604 71.2821 72.604C73.3221 72.604 75.0141 73.396 76.3581 74.98C77.7261 73.396 79.6821 72.604 82.2261 72.604C84.6501 72.604 86.4741 73.348 87.6981 74.836C88.9461 76.324 89.5701 78.256 89.5701 80.632V91H84.6381Z"/>
<path d="M94.0909 97.984V73H99.0229V74.296C100.199 73.168 101.735 72.604 103.631 72.604C106.223 72.604 108.347 73.528 110.003 75.376C111.683 77.2 112.523 79.408 112.523 82C112.523 84.592 111.683 86.812 110.003 88.66C108.347 90.484 106.223 91.396 103.631 91.396C101.711 91.396 100.175 90.82 99.0229 89.668V97.984H94.0909ZM102.911 86.896C104.255 86.896 105.347 86.428 106.187 85.492C107.027 84.532 107.447 83.368 107.447 82C107.447 80.632 107.027 79.48 106.187 78.544C105.347 77.584 104.255 77.104 102.911 77.104C101.279 77.104 99.9829 77.752 99.0229 79.048V84.916C99.9829 86.236 101.279 86.896 102.911 86.896Z"/>
<path d="M132.585 73V91H127.653V89.56C126.477 90.784 125.001 91.396 123.225 91.396C120.945 91.396 119.157 90.676 117.861 89.236C116.589 87.772 115.953 85.84 115.953 83.44V73H120.885V82.612C120.885 85.468 122.013 86.896 124.269 86.896C125.637 86.896 126.765 86.212 127.653 84.844V73H132.585Z" />
<path d="M143.381 91.396C139.973 91.396 137.501 90.244 135.965 87.94L139.349 85.06C140.213 86.452 141.557 87.148 143.381 87.148C143.933 87.148 144.401 87.04 144.785 86.824C145.169 86.608 145.361 86.284 145.361 85.852C145.361 85.468 145.193 85.156 144.857 84.916C144.545 84.652 143.909 84.388 142.949 84.124L141.617 83.8C139.961 83.368 138.701 82.648 137.837 81.64C136.997 80.632 136.601 79.432 136.649 78.04C136.697 76.408 137.345 75.1 138.593 74.116C139.865 73.108 141.473 72.604 143.417 72.604C146.177 72.604 148.253 73.612 149.645 75.628L146.405 78.256C145.565 77.2 144.545 76.672 143.345 76.672C142.865 76.672 142.445 76.78 142.085 76.996C141.725 77.212 141.545 77.512 141.545 77.896C141.545 78.616 142.133 79.132 143.309 79.444L145.001 79.948C148.481 80.884 150.221 82.744 150.221 85.528C150.221 87.232 149.573 88.636 148.277 89.74C146.981 90.844 145.349 91.396 143.381 91.396Z"/>
</svg>

<svg width="152" height="98" viewBox="0 0 152 98" fill="none" xmlns="http://www.w3.org/2000/svg">
  <path clip-rule="evenodd" d="M70.546 50v-9.469c-7.122-2.242-12.273-8.755-12.273-16.44 0-9.54 7.937-17.273 17.727-17.273s17.727 7.733 17.727 17.273c0 7.685-5.15 14.198-12.273 16.44V50H101v-7.045h-9.652c5.807-4.4 9.538-11.24 9.538-18.92C100.886 10.76 89.744 0 76 0S51.114 10.76 51.114 24.034c0 7.681 3.73 14.52 9.538 18.92H51V50h19.546Z" />
  <path d="M9.412 84.016c1.56 1.584 3.444 2.376 5.652 2.376s4.08-.792 5.616-2.376c1.56-1.608 2.34-3.54 2.34-5.796 0-2.256-.78-4.176-2.34-5.76-1.536-1.608-3.408-2.412-5.616-2.412-2.208 0-4.092.804-5.652 2.412-1.536 1.584-2.304 3.504-2.304 5.76s.768 4.188 2.304 5.796Zm14.976 3.564c-2.568 2.568-5.676 3.852-9.324 3.852-3.648 0-6.768-1.284-9.36-3.852-2.568-2.592-3.852-5.712-3.852-9.36 0-3.648 1.284-6.756 3.852-9.324 2.592-2.592 5.712-3.888 9.36-3.888 3.648 0 6.756 1.296 9.324 3.888 2.592 2.568 3.888 5.676 3.888 9.324 0 3.648-1.296 6.768-3.888 9.36ZM31.759 91V64.72h4.932V91h-4.932ZM48.519 97.984h-5.364l3.528-7.992L39.123 73h5.4l4.824 11.664L54.135 73h5.436L48.519 97.984ZM84.638 91v-9.504c0-2.904-1.032-4.356-3.096-4.356-1.56 0-2.712.708-3.456 2.124.096.408.144.864.144 1.368V91h-4.932v-9.504c0-2.904-1.032-4.356-3.096-4.356-.696 0-1.344.18-1.944.54-.6.336-1.056.792-1.368 1.368V91h-4.932V73h4.932v1.404c1.056-1.2 2.52-1.8 4.392-1.8 2.04 0 3.732.792 5.076 2.376 1.368-1.584 3.324-2.376 5.868-2.376 2.424 0 4.248.744 5.472 2.232 1.248 1.488 1.872 3.42 1.872 5.796V91h-4.932ZM94.09 97.984V73h4.933v1.296c1.176-1.128 2.712-1.692 4.608-1.692 2.592 0 4.716.924 6.372 2.772 1.68 1.824 2.52 4.032 2.52 6.624 0 2.592-.84 4.812-2.52 6.66-1.656 1.824-3.78 2.736-6.372 2.736-1.92 0-3.456-.576-4.608-1.728v8.316H94.09Zm8.821-11.088c1.344 0 2.436-.468 3.276-1.404.84-.96 1.26-2.124 1.26-3.492 0-1.368-.42-2.52-1.26-3.456-.84-.96-1.932-1.44-3.276-1.44-1.632 0-2.928.648-3.888 1.944v5.868c.96 1.32 2.256 1.98 3.888 1.98ZM132.585 73v18h-4.932v-1.44c-1.176 1.224-2.652 1.836-4.428 1.836-2.28 0-4.068-.72-5.364-2.16-1.272-1.464-1.908-3.396-1.908-5.796V73h4.932v9.612c0 2.856 1.128 4.284 3.384 4.284 1.368 0 2.496-.684 3.384-2.052V73h4.932ZM143.381 91.396c-3.408 0-5.88-1.152-7.416-3.456l3.384-2.88c.864 1.392 2.208 2.088 4.032 2.088.552 0 1.02-.108 1.404-.324.384-.216.576-.54.576-.972 0-.384-.168-.696-.504-.936-.312-.264-.948-.528-1.908-.792l-1.332-.324c-1.656-.432-2.916-1.152-3.78-2.16-.84-1.008-1.236-2.208-1.188-3.6.048-1.632.696-2.94 1.944-3.924 1.272-1.008 2.88-1.512 4.824-1.512 2.76 0 4.836 1.008 6.228 3.024l-3.24 2.628c-.84-1.056-1.86-1.584-3.06-1.584-.48 0-.9.108-1.26.324-.36.216-.54.516-.54.9 0 .72.588 1.236 1.764 1.548l1.692.504c3.48.936 5.22 2.796 5.22 5.58 0 1.704-.648 3.108-1.944 4.212-1.296 1.104-2.928 1.656-4.896 1.656Z" />
</svg>
